X:1
T:Title
%%score { ( 1 3 ) | 2 }
L:1/8
M:4/4
K:Ab
V:1 treble nm="Grand Piano"
V:3 treble 
V:2 bass 
V:1
 z4 z2[Q:1/4=100] [CE]>[DF] | [CE]2 [EA]2 G2 B2 | B2 A4 [EA]>[EB] | [FA]2 [EA]2 [Ed]2 [Ec]2 | %4
 B6 c>d | z4 z2 c2 | [FAd]2 [FAd]4 [EFc]>[DFB] | [CEA]2 [DEB]2 [B,E]2 [DEG]2 |[M:3/4] [CEA]6 | %9
[M:1/4] [EAc]>[EAd] |[M:4/4] [ce]6 z2 | [Ac]2 [GB]4 [GB]>[Ac] | [Bd]2 [Bd]2 [Ac]2 [GB]2 | %13
 [Ac]6 [Ac]>[Bd] | [ce]6 z2 | [DFA]2 [FAd]4 [EFc]>[DFB] | [CEA]2 [DEB]2 [B,E]2 [DEG]2 | %17
[M:3/4] [CEA]6 |] %18
V:2
 z4 z2 [A,,A,]>[A,,A,] | [A,,A,]2 [C,A,]2 [E,B,E]2 [G,DE]2 | [A,DE]2 [A,CE]4 [C,A,]>[C,A,] | %3
 [D,A,]2 [C,A,]2 [B,,G,]2 [A,,A,]2 | [E,G,E]6[K:treble] [A,E]>[A,B,E] | %5
 [A,CE]2 [A,CE]2 [A,CE]2 .[A,EA]2 | D,2 D,4 D,>D, | E,2 E,2 G,2 E,2 |[M:3/4] A,,6 |[M:1/4] A,>A, | %10
[M:4/4] A,2 A,>A, A,>[K:treble][A,EA] [A,DE]>[K:bass][A,CE] | [E,E]2 [E,E]2 [E,E]2 [E,E]>[E,E] | %12
 [E,E]2 [E,E]2 [E,E]2 [E,E]2 | [A,E]6 [A,E]>[A,E] | [A,E]2 A,>A, A,>A, A,>A, | D,2 D,4 D,>D, | %16
 E,2 E,2 G,2 E,2 |[M:3/4] A,,6 |] %18
V:3
 x8 | x8 | x8 | x8 | x8 | e2 c2 A2 z _G | x8 | x8 |[M:3/4] x6 |[M:1/4] x2 |[M:4/4] E2 E>E E>c B>A | %11
 x8 | x8 | x8 | z2 E>E E>[EAc] [DEB]>[CEA] | x8 | x8 |[M:3/4] x6 |] %18

